;FLAVOR:Marlin
;TIME:3815
;Filament used: 3.01445m
;Layer height: 0.15
;MINX:-47.582
;MINY:-20.7
;MINZ:0.3
;MAXX:47.582
;MAXY:20.7
;MAXZ:9.15
;Generated with Cura_SteamEngine 4.4.1
M140 S60
M105
M190 S60
M104 S210
M105
M109 S210
M82 ;absolute extrusion mode
G21        ;metric values
G90        ;absolute positioning
M107       ;start with the fan off
G28   ;move to endstops
G92 E0                  ;zero the extruded length
G1 F200 E3              ;extrude 3mm of feed stock
G92 E0                  ;zero the extruded length again
G1 F120
;Put printing message on LCD screen
M117 Printing...
G92 E0
G92 E0
G1 F1500 E-6.5
;LAYER_COUNT:62
;LAYER:0
M107
G0 F3600 X-27.932 Y20.7 Z0.3
;TYPE:SKIRT
G1 F1500 E0
G1 X-28.958 Y20.7 E0.05631
G1 X-29.632 Y20.69 E0.0933
G1 X-30.081 Y20.651 E0.11803
G1 X-30.393 Y20.602 E0.13536
G1 X-30.885 Y20.485 E0.16312
G1 X-31.248 Y20.342 E0.18453
G1 X-31.467 Y20.24 E0.19779
G1 X-31.827 Y20.043 E0.22031
G1 X-31.993 Y19.938 E0.23109
G1 X-32.547 Y19.494 E0.27005
G1 X-33.471 Y18.568 E0.34184
G1 X-35.476 Y16.621 E0.49522
G1 X-37.479 Y14.78 E0.64452
G1 X-39.535 Y12.997 E0.79387
G1 X-41.681 Y11.239 E0.94611
G1 X-43.872 Y9.545 E1.0981
G1 X-45.064 Y8.664 E1.17944
G1 X-45.267 Y8.501 E1.19373
G1 X-45.583 Y8.225 E1.21675
G1 X-45.811 Y8.005 E1.23414
G1 X-46.009 Y7.794 E1.25002
G1 X-46.252 Y7.502 E1.27087
G1 X-46.49 Y7.179 E1.29289
G1 X-46.724 Y6.812 E1.31677
G1 X-46.821 Y6.634 E1.3279
G1 X-46.875 Y6.53 E1.33433
G1 X-47.007 Y6.265 E1.35058
G1 X-47.178 Y5.854 E1.37501
G1 X-47.26 Y5.609 E1.38919
G1 X-47.29 Y5.511 E1.39481
G1 X-47.358 Y5.284 E1.40781
G1 X-47.451 Y4.884 E1.43035
G1 X-47.492 Y4.634 E1.44425
G1 X-47.508 Y4.521 E1.45052
G1 X-47.538 Y4.286 E1.46352
G1 X-47.563 Y3.956 E1.48168
G1 X-47.577 Y3.362 E1.51429
G1 X-47.578 Y3.301 E1.51764
G1 X-47.58 Y2.835 E1.54321
G1 X-47.58 Y2.776 E1.54645
G1 X-47.56 Y1.349 E1.62477
G1 X-47.56 Y-1.435 E1.77755
G1 X-47.58 Y-2.338 E1.82712
G1 X-47.581 Y-2.401 E1.83058
G1 X-47.582 Y-2.919 E1.85901
G1 X-47.582 Y-2.972 E1.86191
G1 X-47.574 Y-3.516 E1.89177
G1 X-47.571 Y-3.611 E1.89699
G1 X-47.549 Y-4.106 E1.92418
G1 X-47.508 Y-4.49 E1.94537
G1 X-47.438 Y-4.91 E1.96874
G1 X-47.383 Y-5.173 E1.98349
G1 X-47.327 Y-5.393 E1.99594
G1 X-47.2 Y-5.786 E2.01861
G1 X-47.107 Y-6.02 E2.03243
G1 X-47.059 Y-6.133 E2.03917
G1 X-46.951 Y-6.377 E2.05381
G1 X-46.741 Y-6.774 E2.07846
G1 X-46.617 Y-6.973 E2.09133
G1 X-46.573 Y-7.042 E2.09582
G1 X-46.43 Y-7.259 E2.11008
G1 X-46.165 Y-7.606 E2.13404
G1 X-46.031 Y-7.759 E2.1452
G1 X-45.963 Y-7.835 E2.1508
G1 X-45.765 Y-8.047 E2.16672
G1 X-45.449 Y-8.343 E2.19048
G1 X-45.232 Y-8.52 E2.20585
G1 X-45.138 Y-8.593 E2.21238
G1 X-44.106 Y-9.373 E2.28337
G1 X-44.072 Y-9.399 E2.28572
G1 X-43.528 Y-9.799 E2.32278
G1 X-41.382 Y-11.47 E2.47204
G1 X-39.26 Y-13.222 E2.62306
G1 X-37.211 Y-15.013 E2.7724
G1 X-35.193 Y-16.879 E2.92324
G1 X-33.247 Y-18.785 E3.07273
G1 X-32.877 Y-19.164 E3.10179
G1 X-32.834 Y-19.207 E3.10513
G1 X-32.516 Y-19.521 E3.12966
G1 X-32.13 Y-19.847 E3.15738
G1 X-31.876 Y-20.011 E3.17398
G1 X-31.587 Y-20.179 E3.19232
G1 X-31.131 Y-20.397 E3.22006
G1 X-30.668 Y-20.537 E3.24661
G1 X-30.314 Y-20.615 E3.2665
G1 X-29.729 Y-20.688 E3.29885
G1 X-29.452 Y-20.697 E3.31406
G1 X-29.348 Y-20.699 E3.31977
G1 X42.675 Y-20.7 E7.27234
G1 X42.721 Y-20.7 E7.27486
G1 X43.419 Y-20.69 E7.31317
G1 X43.948 Y-20.638 E7.34234
G1 X44.304 Y-20.573 E7.3622
G1 X44.792 Y-20.443 E7.38992
G1 X45.374 Y-20.17 E7.4252
G1 X45.686 Y-19.983 E7.44516
G1 X46.098 Y-19.689 E7.47293
G1 X46.552 Y-19.222 E7.50868
G1 X46.68 Y-19.06 E7.52001
G1 X46.732 Y-18.993 E7.52466
G1 X46.821 Y-18.874 E7.53282
G1 X47.09 Y-18.446 E7.56056
G1 X47.319 Y-17.891 E7.59351
G1 X47.413 Y-17.583 E7.61118
G1 X47.522 Y-17.089 E7.63894
G1 X47.55 Y-16.768 E7.65663
G1 X47.576 Y-16.068 E7.69507
G1 X47.578 Y-15.949 E7.7016
G1 X47.582 Y15.787 E9.44325
G1 X47.582 Y15.833 E9.44577
G1 X47.572 Y16.534 E9.48425
G1 X47.519 Y17.067 E9.51364
G1 X47.453 Y17.426 E9.53367
G1 X47.323 Y17.914 E9.56139
G1 X47.048 Y18.496 E9.59671
G1 X46.873 Y18.787 E9.61535
G1 X46.579 Y19.198 E9.64308
G1 X46.156 Y19.616 E9.67572
G1 X45.91 Y19.817 E9.69315
G1 X45.494 Y20.105 E9.72092
G1 X44.937 Y20.361 E9.75456
G1 X44.529 Y20.503 E9.77827
G1 X44.04 Y20.631 E9.80601
G1 X43.534 Y20.68 E9.83391
G1 X42.632 Y20.696 E9.88341
G1 X42.575 Y20.697 E9.88654
G1 X-27.932 Y20.7 E13.75591
G1 F1500 E7.25591
;MESH:bed.STL(1)
G0 F3600 X-27.931 Y18.164
G0 X-27.932 Y16.88
G0 X-29.618 Y5.691
;TYPE:WALL-INNER
G1 F1500 E13.75591
G1 X-41.336 Y5.691 E14.39899
G1 X-41.718 Y5.659 E14.42002
G1 X-42.035 Y5.578 E14.43798
G1 X-42.343 Y5.441 E14.45648
G1 X-42.627 Y5.252 E14.4752
G1 X-42.871 Y5.02 E14.49368
G1 X-43.071 Y4.757 E14.51181
G1 X-43.226 Y4.458 E14.53029
G1 X-43.327 Y4.139 E14.54866
G1 X-43.376 Y3.793 E14.56783
G1 X-43.378 Y3.459 E14.58616
G1 X-43.378 Y3.259 E14.59714
G1 X-43.178 Y3.259 E14.60425
G1 X-34.911 Y3.259 E15.05793
G1 X-34.19 Y3.151 E15.09794
G1 X-33.471 Y2.836 E15.14102
G1 X-32.858 Y2.347 E15.18406
G1 X-32.39 Y1.715 E15.22721
G1 X-32.104 Y0.986 E15.27019
G1 X-32.024 Y0.319 E15.30706
G1 X-32.024 Y-.315 E15.34185
G1 X-32.117 Y-1.028 E15.38131
G1 X-32.416 Y-1.753 E15.42435
G1 X-32.896 Y-2.378 E15.4676
G1 X-33.521 Y-2.858 E15.51084
G1 X-34.246 Y-3.157 E15.55388
G1 X-34.959 Y-3.25 E15.59334
G1 X-43.345 Y-3.25 E16.05356
G1 X-43.382 Y-3.25 E16.05559
G1 X-43.382 Y-3.579 E16.07364
G1 X-43.38 Y-3.616 E16.07555
G1 X-43.357 Y-3.979 E16.09551
G1 X-43.28 Y-4.306 E16.11395
G1 X-43.149 Y-4.614 E16.13231
G1 X-42.972 Y-4.891 E16.15035
G1 X-42.744 Y-5.142 E16.16896
G1 X-42.477 Y-5.35 E16.18754
G1 X-42.183 Y-5.511 E16.20593
G1 X-41.863 Y-5.62 E16.22449
G1 X-41.531 Y-5.673 E16.24294
G1 X-29.618 Y-5.681 E16.89671
G1 X-29.618 Y-16.125 E17.46987
G1 X-29.608 Y-16.485 E17.48964
G1 X-29.597 Y-16.491 E17.49032
G1 X-29.541 Y-16.5 E17.49344
G1 X43.287 Y-16.5 E21.49018
G1 X43.37 Y-16.485 E21.49481
G1 X43.378 Y-16.455 E21.49651
G1 X43.382 Y16.259 E23.29183
G1 X43.382 Y16.405 E23.29984
G1 X43.367 Y16.487 E23.30442
G1 X43.327 Y16.497 E23.30668
G1 X43.181 Y16.497 E23.31469
G1 X-27.932 Y16.5 E27.21732
G1 X-29.527 Y16.5 E27.30485
G1 X-29.604 Y16.486 E27.30915
G1 X-29.614 Y16.449 E27.31125
G1 X-29.618 Y16.004 E27.33567
G1 X-29.618 Y5.691 E27.90164
G0 F3600 X-30.018 Y6.091
G1 F1500 X-41.357 Y6.091 E28.52392
G1 X-41.781 Y6.056 E28.54727
G1 X-42.17 Y5.956 E28.56931
G1 X-42.537 Y5.793 E28.59135
G1 X-42.878 Y5.565 E28.61386
G1 X-43.168 Y5.291 E28.63575
G1 X-43.41 Y4.971 E28.65777
G1 X-43.596 Y4.613 E28.67991
G1 X-43.719 Y4.227 E28.70214
G1 X-43.776 Y3.821 E28.72464
G1 X-43.78 Y3.059 E28.76646
G1 X-43.78 Y2.859 E28.77744
G1 X-43.58 Y2.859 E28.78454
G1 X-34.941 Y2.859 E29.25864
G1 X-34.302 Y2.763 E29.29411
G1 X-33.679 Y2.491 E29.33141
G1 X-33.148 Y2.067 E29.3687
G1 X-32.743 Y1.52 E29.40606
G1 X-32.495 Y0.888 E29.44331
G1 X-32.424 Y0.295 E29.47609
G1 X-32.424 Y-.289 E29.50814
G1 X-32.507 Y-.924 E29.54328
G1 X-32.766 Y-1.552 E29.58056
G1 X-33.181 Y-2.093 E29.61798
G1 X-33.722 Y-2.508 E29.6554
G1 X-34.35 Y-2.767 E29.69268
G1 X-34.985 Y-2.85 E29.72783
G1 X-43.782 Y-2.85 E30.2106
G1 X-43.782 Y-3.588 E30.2511
G1 X-43.754 Y-4.037 E30.27579
G1 X-43.661 Y-4.431 E30.298
G1 X-43.504 Y-4.801 E30.32006
G1 X-43.29 Y-5.136 E30.34188
G1 X-43.018 Y-5.435 E30.36406
G1 X-42.695 Y-5.687 E30.38654
G1 X-42.343 Y-5.879 E30.40855
G1 X-41.962 Y-6.009 E30.43064
G1 X-41.563 Y-6.073 E30.45282
G1 X-30.018 Y-6.081 E31.0864
G1 X-30.018 Y-16.133 E31.63804
G1 X-30.01 Y-16.544 E31.6606
G1 X-29.962 Y-16.684 E31.66873
G1 X-29.867 Y-16.799 E31.67691
G1 X-29.73 Y-16.875 E31.68551
G1 X-29.573 Y-16.9 E31.69423
G1 X43.324 Y-16.9 E35.69476
G1 X43.527 Y-16.862 E35.7061
G1 X43.64 Y-16.793 E35.71336
G1 X43.731 Y-16.674 E35.72159
G1 X43.778 Y-16.511 E35.7309
G1 X43.782 Y16.442 E37.53933
G1 X43.744 Y16.644 E37.55061
G1 X43.668 Y16.764 E37.55841
G1 X43.55 Y16.852 E37.56648
G1 X43.38 Y16.897 E37.57614
G1 X-27.932 Y16.9 E41.48968
G1 X-29.563 Y16.9 E41.57919
G1 X-29.753 Y16.866 E41.58978
G1 X-29.876 Y16.792 E41.59766
G1 X-29.966 Y16.675 E41.60576
G1 X-30.013 Y16.507 E41.61534
G1 X-30.018 Y16.004 E41.64294
G1 X-30.018 Y6.091 E42.18696
G0 F3600 X-30.418 Y6.491
;TYPE:WALL-OUTER
G1 F1500 X-41.378 Y6.491 E42.78843
G1 X-41.844 Y6.453 E42.81409
G1 X-42.302 Y6.335 E42.84005
G1 X-42.733 Y6.143 E42.86594
G1 X-43.126 Y5.881 E42.89186
G1 X-43.467 Y5.558 E42.91764
G1 X-43.749 Y5.185 E42.9433
G1 X-43.966 Y4.767 E42.96915
G1 X-44.11 Y4.315 E42.99518
G1 X-44.176 Y3.849 E43.02101
G1 X-44.181 Y2.659 E43.08632
G1 X-44.181 Y2.459 E43.09729
G1 X-43.981 Y2.459 E43.1044
G1 X-34.971 Y2.459 E43.59886
G1 X-34.414 Y2.375 E43.62978
G1 X-33.887 Y2.145 E43.66133
G1 X-33.438 Y1.787 E43.69285
G1 X-33.096 Y1.325 E43.72439
G1 X-32.886 Y0.79 E43.75593
G1 X-32.824 Y0.271 E43.78462
G1 X-32.824 Y-.263 E43.81392
G1 X-32.897 Y-.82 E43.84475
G1 X-33.116 Y-1.351 E43.87627
G1 X-33.466 Y-1.808 E43.90786
G1 X-33.923 Y-2.158 E43.93945
G1 X-34.454 Y-2.377 E43.97098
G1 X-35.011 Y-2.45 E44.0018
G1 X-44.182 Y-2.45 E44.5051
G1 X-44.182 Y-3.597 E44.56805
G1 X-44.151 Y-4.096 E44.59549
G1 X-44.042 Y-4.556 E44.62143
G1 X-43.859 Y-4.988 E44.64718
G1 X-43.608 Y-5.381 E44.67277
G1 X-43.289 Y-5.732 E44.6988
G1 X-42.919 Y-6.02 E44.72453
G1 X-42.5 Y-6.248 E44.75071
G1 X-42.06 Y-6.398 E44.77622
G1 X-41.596 Y-6.473 E44.80201
G1 X-30.418 Y-6.481 E45.41545
G1 X-30.418 Y-16.141 E45.94559
G1 X-30.409 Y-16.612 E45.97144
G1 X-30.316 Y-16.884 E45.98721
G1 X-30.126 Y-17.113 E46.00354
G1 X-29.863 Y-17.259 E46.02005
G1 X-29.605 Y-17.3 E46.03439
G1 X43.361 Y-17.3 E50.03871
G1 X43.674 Y-17.241 E50.05619
G1 X43.912 Y-17.095 E50.07151
G1 X44.094 Y-16.858 E50.08791
G1 X44.178 Y-16.566 E50.10458
G1 X44.182 Y16.479 E51.91807
G1 X44.123 Y16.793 E51.9356
G1 X43.967 Y17.04 E51.95163
G1 X43.727 Y17.218 E51.96803
G1 X43.431 Y17.297 E51.98484
G1 X-27.932 Y17.3 E55.90119
G1 X-29.6 Y17.3 E55.99273
G1 X-29.896 Y17.247 E56.00923
G1 X-30.147 Y17.096 E56.02531
G1 X-30.33 Y16.858 E56.04178
G1 X-30.413 Y16.565 E56.05849
G1 X-30.418 Y16.004 E56.08928
G1 X-30.418 Y6.491 E56.61135
G0 F3600 X-30.618 Y6.491
G0 X-30.618 Y5.991
G0 X-29.228 Y5.301
;TYPE:SKIN
G1 F1500 X-41.327 Y5.301 E57.27533
G1 X-41.648 Y5.274 E57.29301
G1 X-41.905 Y5.209 E57.30756
G1 X-42.155 Y5.097 E57.32259
G1 X-42.385 Y4.945 E57.33772
G1 X-42.58 Y4.758 E57.35255
G1 X-42.738 Y4.551 E57.36684
G1 X-42.866 Y4.305 E57.38206
G1 X-42.946 Y4.051 E57.39667
G1 X-42.986 Y3.767 E57.41241
G1 X-42.986 Y3.649 E57.41889
G1 X-34.882 Y3.649 E57.86363
G1 X-34.081 Y3.529 E57.90808
G1 X-33.268 Y3.173 E57.95679
G1 X-32.575 Y2.62 E58.00544
G1 X-32.045 Y1.906 E58.05424
G1 X-31.722 Y1.082 E58.10281
G1 X-31.634 Y0.342 E58.14371
G1 X-31.634 Y-.34 E58.18114
G1 X-31.737 Y-1.129 E58.2248
G1 X-32.075 Y-1.95 E58.27353
G1 X-32.617 Y-2.657 E58.32242
G1 X-33.324 Y-3.199 E58.37131
G1 X-34.145 Y-3.537 E58.42003
G1 X-34.934 Y-3.64 E58.4637
G1 X-42.987 Y-3.64 E58.90564
G1 X-42.969 Y-3.923 E58.9212
G1 X-42.906 Y-4.187 E58.9361
G1 X-42.804 Y-4.428 E58.95046
G1 X-42.658 Y-4.657 E58.96536
G1 X-42.482 Y-4.851 E58.97974
G1 X-42.259 Y-5.026 E58.99529
G1 X-42.024 Y-5.154 E59.00998
G1 X-41.771 Y-5.24 E59.02464
G1 X-41.501 Y-5.283 E59.03965
G1 X-29.228 Y-5.291 E59.71318
G1 X-29.228 Y-16.11 E60.30692
G1 X42.988 Y-16.11 E64.27008
G1 X42.992 Y16.107 E66.03812
G1 X-27.932 Y16.11 E69.93038
G1 X-29.227 Y16.11 E70.00144
G1 X-29.228 Y16.004 E70.00726
G1 X-29.228 Y5.301 E70.59463
G0 F3600 X-42.682 Y4.269
G1 F1500 X-41.97 Y4.981 E70.64989
G0 F3600 X-41.265 Y5.12
G1 F1500 X-42.557 Y3.828 E70.75017
G0 F3600 X-41.991 Y3.828
G1 F1500 X-40.699 Y5.12 E70.85044
G0 F3600 X-40.133 Y5.12
G1 F1500 X-41.425 Y3.828 E70.95071
G0 F3600 X-40.86 Y3.828
G1 F1500 X-39.568 Y5.12 E71.05099
G0 F3600 X-39.002 Y5.12
G1 F1500 X-40.294 Y3.828 E71.15126
G0 F3600 X-39.728 Y3.828
G1 F1500 X-38.436 Y5.12 E71.25153
G0 F3600 X-37.871 Y5.12
G1 F1500 X-39.163 Y3.828 E71.35181
G0 F3600 X-38.597 Y3.828
G1 F1500 X-37.305 Y5.12 E71.45208
G0 F3600 X-36.739 Y5.12
G1 F1500 X-38.031 Y3.828 E71.55235
G0 F3600 X-37.466 Y3.828
G1 F1500 X-36.174 Y5.12 E71.65263
G0 F3600 X-35.608 Y5.12
G1 F1500 X-36.9 Y3.828 E71.7529
G0 F3600 X-36.334 Y3.828
G1 F1500 X-35.042 Y5.12 E71.85317
G0 F3600 X-34.477 Y5.12
G1 F1500 X-35.768 Y3.828 E71.95341
G0 F3600 X-35.203 Y3.828
G1 F1500 X-33.911 Y5.12 E72.05368
G0 F3600 X-33.345 Y5.12
G1 F1500 X-34.667 Y3.799 E72.15624
G0 F3600 X-34.175 Y3.725
G1 F1500 X-32.78 Y5.12 E72.26451
G0 F3600 X-32.214 Y5.12
G1 F1500 X-33.752 Y3.582 E72.38388
G0 F3600 X-33.359 Y3.41
G1 F1500 X-31.648 Y5.12 E72.51663
G0 F3600 X-31.082 Y5.12
G1 F1500 X-33.007 Y3.196 E72.66599
G0 F3600 X-32.693 Y2.945
G1 F1500 X-30.517 Y5.12 E72.83484
G0 F3600 X-29.951 Y5.12
G1 F1500 X-32.394 Y2.677 E73.02444
G0 F3600 X-32.153 Y2.353
G1 F1500 X-29.385 Y5.12 E73.23923
G0 F3600 X-29.047 Y5.459
G1 F1500 X-18.577 Y15.929 E74.05181
G0 F3600 X-19.142 Y15.929
G1 F1500 X-29.047 Y6.025 E74.82051
G0 F3600 X-29.047 Y6.59
G1 F1500 X-19.708 Y15.929 E75.54532
G0 F3600 X-20.274 Y15.929
G1 F1500 X-29.047 Y7.156 E76.2262
G0 F3600 X-29.047 Y7.722
G1 F1500 X-20.839 Y15.929 E76.86319
G0 F3600 X-21.405 Y15.929
G1 F1500 X-29.047 Y8.287 E77.45629
G0 F3600 X-29.047 Y8.853
G1 F1500 X-21.971 Y15.929 E78.00547
G0 F3600 X-22.536 Y15.929
G1 F1500 X-29.047 Y9.419 E78.51076
G0 F3600 X-29.047 Y9.985
G1 F1500 X-23.102 Y15.929 E78.97211
G0 F3600 X-23.668 Y15.929
G1 F1500 X-29.047 Y10.55 E79.38958
G0 F3600 X-29.047 Y11.116
G1 F1500 X-24.233 Y15.929 E79.76316
G0 F3600 X-24.799 Y15.929
G1 F1500 X-29.047 Y11.682 E80.09282
G0 F3600 X-29.047 Y12.247
G1 F1500 X-25.365 Y15.929 E80.37858
G0 F3600 X-25.931 Y15.929
G1 F1500 X-29.047 Y12.813 E80.62042
G0 F3600 X-29.047 Y13.379
G1 F1500 X-26.496 Y15.929 E80.81836
G0 F3600 X-27.062 Y15.929
G1 F1500 X-29.047 Y13.944 E80.97242
G0 F3600 X-29.047 Y14.51
G1 F1500 X-27.628 Y15.929 E81.08255
G0 F3600 X-28.193 Y15.93
G1 F1500 X-29.047 Y15.076 E81.14883
G0 F3600 X-29.047 Y15.641
G1 F1500 X-28.758 Y15.93 E81.17126
G0 F3600 X-18.011 Y15.929
G1 F1500 X-31.911 Y2.029 E82.25005
G0 F3600 X-31.744 Y1.631
G1 F1500 X-17.445 Y15.929 E83.35977
G0 F3600 X-16.88 Y15.929
G1 F1500 X-31.584 Y1.225 E84.50096
G0 F3600 X-31.5 Y0.743
G1 F1500 X-16.314 Y15.929 E85.67956
G0 F3600 X-15.748 Y15.929
G1 F1500 X-31.453 Y0.224 E86.89844
G0 F3600 X-31.453 Y-.34
G1 F1500 X-15.182 Y15.929 E88.16117
G0 F3600 X-14.617 Y15.929
G1 F1500 X-31.536 Y-.989 E89.47423
G1 X-31.606 Y-1.059
G0 F3600 X-31.842 Y-1.861
G1 F1500 X-14.051 Y15.929 E90.85497
G0 F3600 X-13.486 Y15.928
G1 F1500 X-34.522 Y-5.106 E92.48752
G0 F3600 X-33.957 Y-5.107
G1 F1500 X-12.92 Y15.928 E94.12014
G0 F3600 X-12.355 Y15.928
G1 F1500 X-33.391 Y-5.107 E95.75273
G0 F3600 X-32.826 Y-5.108
G1 F1500 X-11.789 Y15.928 E97.38539
G0 F3600 X-11.223 Y15.928
G1 F1500 X-32.261 Y-5.108 E99.01809
G0 F3600 X-31.696 Y-5.108
G1 F1500 X-10.658 Y15.928 E100.65079
G0 F3600 X-10.092 Y15.928
G1 F1500 X-31.13 Y-5.108 E102.28349
G0 F3600 X-30.565 Y-5.109
G1 F1500 X-9.526 Y15.928 E103.91627
G0 F3600 X-8.961 Y15.928
G1 F1500 X-30 Y-5.11 E105.54909
G0 F3600 X-29.434 Y-5.11
G1 F1500 X-8.395 Y15.928 E107.18191
G0 F3600 X-7.829 Y15.928
G1 F1500 X-29.047 Y-5.289 E108.82862
G0 F3600 X-29.047 Y-5.854
G1 F1500 X-7.264 Y15.928 E110.51918
G0 F3600 X-6.698 Y15.928
G1 F1500 X-29.047 Y-6.42 E112.25366
G0 F3600 X-29.047 Y-6.986
G1 F1500 X-6.132 Y15.928 E114.03208
G0 F3600 X-5.567 Y15.928
G1 F1500 X-29.047 Y-7.551 E115.85435
G0 F3600 X-29.047 Y-8.117
G1 F1500 X-5.001 Y15.928 E117.72054
G0 F3600 X-4.435 Y15.928
G1 F1500 X-29.047 Y-8.683 E119.63066
G0 F3600 X-29.047 Y-9.248
G1 F1500 X-3.869 Y15.928 E121.58467
G0 F3600 X-3.304 Y15.928
G1 F1500 X-29.047 Y-9.814 E123.58257
G0 F3600 X-29.047 Y-10.38
G1 F1500 X-2.738 Y15.928 E125.6244
G0 F3600 X-2.172 Y15.928
G1 F1500 X-29.047 Y-10.946 E127.71016
G0 F3600 X-29.047 Y-11.511
G1 F1500 X-1.607 Y15.928 E129.83976
G0 F3600 X-1.041 Y15.928
G1 F1500 X-29.047 Y-12.077 E132.01329
G0 F3600 X-29.047 Y-12.643
G1 F1500 X-.475 Y15.928 E134.23076
G0 F3600 X0.089 Y15.928
G1 F1500 X-29.047 Y-13.208 E136.49203
G0 F3600 X-29.047 Y-13.774
G1 F1500 X0.654 Y15.928 E138.79719
G0 F3600 X1.22 Y15.928
G1 F1500 X-29.047 Y-14.34 E141.14628
G0 F3600 X-29.047 Y-14.905
