;FLAVOR:Marlin
;TIME:4670
;Filament used: 3.71201m
;Layer height: 0.15
;MINX:-35.646
;MINY:-35.646
;MINZ:0.3
;MAXX:35.645
;MAXY:35.645
;MAXZ:9
;Generated with Cura_SteamEngine 4.4.1
M140 S60
M105
M190 S60
M104 S210
M105
M109 S210
M82 ;absolute extrusion mode
G21        ;metric values
G90        ;absolute positioning
M107       ;start with the fan off
G28   ;move to endstops
G92 E0                  ;zero the extruded length
G1 F200 E3              ;extrude 3mm of feed stock
G92 E0                  ;zero the extruded length again
G1 F120
;Put printing message on LCD screen
M117 Printing...
G92 E0
G92 E0
G1 F1500 E-6.5
;LAYER_COUNT:59
;LAYER:0
M107
G0 F3600 X1.572 Y-35.608 Z0.3
;TYPE:SKIRT
G1 F1500 E0
G1 X1.68 Y-35.604 E0.00593
G1 X2.715 Y-35.543 E0.06283
G1 X2.794 Y-35.537 E0.06718
G1 X3.188 Y-35.505 E0.08887
G1 X3.264 Y-35.498 E0.09306
G1 X3.908 Y-35.432 E0.12859
G1 X3.97 Y-35.425 E0.13201
G1 X4.561 Y-35.354 E0.16468
G1 X4.629 Y-35.346 E0.16844
G1 X5.203 Y-35.266 E0.20024
G1 X5.271 Y-35.255 E0.20402
G1 X5.938 Y-35.149 E0.24108
G1 X6.006 Y-35.138 E0.24486
G1 X6.51 Y-35.048 E0.27296
G1 X6.574 Y-35.036 E0.27654
G1 X7.233 Y-34.906 E0.3134
G1 X7.302 Y-34.892 E0.31726
G1 X7.899 Y-34.762 E0.35079
G1 X7.965 Y-34.747 E0.35451
G1 X8.441 Y-34.634 E0.38135
G1 X8.5 Y-34.619 E0.3847
G1 X9.224 Y-34.434 E0.4257
G1 X9.302 Y-34.413 E0.43014
G1 X9.835 Y-34.264 E0.46051
G1 X9.891 Y-34.248 E0.46371
G1 X10.45 Y-34.082 E0.49571
G1 X10.517 Y-34.061 E0.49956
G1 X11.095 Y-33.877 E0.53285
G1 X11.164 Y-33.855 E0.53682
G1 X11.748 Y-33.656 E0.57068
G1 X11.803 Y-33.636 E0.57389
G1 X12.377 Y-33.43 E0.60736
G1 X12.448 Y-33.404 E0.61151
G1 X13.028 Y-33.182 E0.64559
G1 X13.093 Y-33.156 E0.64944
G1 X13.631 Y-32.938 E0.68129
G1 X13.694 Y-32.912 E0.68503
G1 X14.218 Y-32.688 E0.71631
G1 X14.273 Y-32.664 E0.7196
G1 X14.899 Y-32.384 E0.75723
G1 X14.969 Y-32.352 E0.76146
G1 X15.417 Y-32.14 E0.78866
G1 X15.471 Y-32.114 E0.79195
G1 X16.117 Y-31.795 E0.83149
G1 X16.179 Y-31.763 E0.83532
G1 X16.646 Y-31.521 E0.86418
G1 X16.705 Y-31.49 E0.86784
G1 X17.325 Y-31.154 E0.90654
G1 X17.386 Y-31.12 E0.91037
G1 X17.818 Y-30.875 E0.93763
G1 X17.878 Y-30.841 E0.94141
G1 X18.443 Y-30.506 E0.97746
G1 X18.505 Y-30.468 E0.98145
G1 X18.966 Y-30.182 E1.01122
G1 X19.015 Y-30.151 E1.0144
G1 X19.637 Y-29.751 E1.05499
G1 X19.7 Y-29.71 E1.05911
G1 X20.067 Y-29.463 E1.08339
G1 X20.121 Y-29.426 E1.08698
G1 X20.687 Y-29.03 E1.12489
G1 X20.738 Y-28.993 E1.12835
G1 X21.194 Y-28.662 E1.15927
G1 X21.255 Y-28.617 E1.16343
G1 X21.781 Y-28.218 E1.19966
G1 X21.829 Y-28.181 E1.20299
G1 X22.277 Y-27.829 E1.23426
G1 X22.333 Y-27.784 E1.2382
G1 X22.84 Y-27.369 E1.27416
G1 X22.887 Y-27.329 E1.27754
G1 X23.254 Y-27.018 E1.30394
G1 X23.312 Y-26.968 E1.30815
G1 X23.867 Y-26.477 E1.34881
G1 X23.91 Y-26.439 E1.35196
G1 X24.292 Y-26.09 E1.38036
G1 X24.35 Y-26.036 E1.38471
G1 X24.815 Y-25.592 E1.41999
G1 X24.866 Y-25.542 E1.42391
G1 X25.313 Y-25.098 E1.45848
G1 X25.353 Y-25.058 E1.46159
G1 X25.709 Y-24.693 E1.48957
G1 X25.759 Y-24.64 E1.49357
G1 X26.249 Y-24.117 E1.5329
G1 X26.293 Y-24.07 E1.53643
G1 X26.65 Y-23.675 E1.56565
G1 X26.699 Y-23.619 E1.56974
G1 X27.123 Y-23.13 E1.60525
G1 X27.165 Y-23.081 E1.6088
G1 X27.527 Y-22.648 E1.63977
G1 X27.571 Y-22.595 E1.64355
G1 X27.973 Y-22.095 E1.67876
G1 X28.017 Y-22.039 E1.68267
G1 X28.369 Y-21.583 E1.71428
G1 X28.406 Y-21.534 E1.71765
G1 X28.76 Y-21.059 E1.75016
G1 X28.801 Y-21.003 E1.75397
G1 X29.178 Y-20.476 E1.78953
G1 X29.216 Y-20.421 E1.7932
G1 X29.551 Y-19.934 E1.82564
G1 X29.589 Y-19.877 E1.8294
G1 X29.927 Y-19.365 E1.86306
G1 X29.962 Y-19.313 E1.8665
G1 X30.26 Y-18.844 E1.897
G1 X30.301 Y-18.777 E1.90131
G1 X30.617 Y-18.255 E1.9348
G1 X30.65 Y-18.198 E1.93841
G1 X30.989 Y-17.614 E1.97547
G1 X31.02 Y-17.56 E1.97889
G1 X31.272 Y-17.108 E2.00729
G1 X31.307 Y-17.044 E2.01129
G1 X31.621 Y-16.453 E2.04802
G1 X31.652 Y-16.394 E2.05167
G1 X31.918 Y-15.87 E2.08392
G1 X31.948 Y-15.808 E2.0877
G1 X32.22 Y-15.246 E2.12197
G1 X32.248 Y-15.187 E2.12555
G1 X32.483 Y-14.678 E2.15632
G1 X32.509 Y-14.621 E2.15976
G1 X32.744 Y-14.088 E2.19172
G1 X32.774 Y-14.018 E2.1959
G1 X33.063 Y-13.323 E2.23721
G1 X33.09 Y-13.256 E2.24118
G1 X33.234 Y-12.889 E2.26281
G1 X33.257 Y-12.831 E2.26624
G1 X33.533 Y-12.09 E2.30963
G1 X33.555 Y-12.029 E2.31319
G1 X33.698 Y-11.623 E2.33681
G1 X33.721 Y-11.555 E2.34075
G1 X33.958 Y-10.837 E2.38225
G1 X33.979 Y-10.771 E2.38605
G1 X34.133 Y-10.272 E2.41471
G1 X34.151 Y-10.213 E2.41809
G1 X34.336 Y-9.575 E2.45455
G1 X34.355 Y-9.506 E2.45847
G1 X34.491 Y-9 E2.48723
G1 X34.508 Y-8.934 E2.49097
G1 X34.674 Y-8.266 E2.52874
G1 X34.69 Y-8.198 E2.53258
G1 X34.817 Y-7.641 E2.56393
G1 X34.831 Y-7.578 E2.56747
G1 X34.942 Y-7.047 E2.59724
G1 X34.956 Y-6.977 E2.60116
G1 X35.1 Y-6.213 E2.64382
G1 X35.111 Y-6.148 E2.64744
G1 X35.178 Y-5.753 E2.66943
G1 X35.189 Y-5.686 E2.67316
G1 X35.298 Y-4.96 E2.71344
G1 X35.307 Y-4.895 E2.71705
G1 X35.379 Y-4.348 E2.74732
G1 X35.388 Y-4.278 E2.7512
G1 X35.459 Y-3.643 E2.78626
G1 X35.465 Y-3.579 E2.78979
G1 X35.514 Y-3.056 E2.81862
G1 X35.52 Y-2.984 E2.82258
G1 X35.571 Y-2.291 E2.86072
G1 X35.575 Y-2.227 E2.86424
G1 X35.606 Y-1.67 E2.89485
G1 X35.61 Y-1.601 E2.89864
G1 X35.634 Y-.944 E2.93472
G1 X35.635 Y-.878 E2.93835
G1 X35.644 Y-.377 E2.96584
G1 X35.645 Y-.312 E2.96941
G1 X35.645 Y0.314 E3.00377
G1 X35.644 Y0.385 E3.00766
G1 X35.63 Y1.092 E3.04647
G1 X35.628 Y1.16 E3.0502
G1 X35.609 Y1.65 E3.07711
G1 X35.606 Y1.724 E3.08118
G1 X35.562 Y2.466 E3.12197
G1 X35.557 Y2.535 E3.12577
G1 X35.521 Y2.993 E3.15098
G1 X35.516 Y3.054 E3.15434
G1 X35.451 Y3.734 E3.19183
G1 X35.443 Y3.81 E3.19602
G1 X35.378 Y4.365 E3.22669
G1 X35.37 Y4.426 E3.23006
G1 X35.272 Y5.154 E3.27038
G1 X35.262 Y5.22 E3.27404
G1 X35.198 Y5.637 E3.29719
G1 X35.187 Y5.706 E3.30103
G1 X35.066 Y6.404 E3.3399
G1 X35.054 Y6.47 E3.34358
G1 X34.938 Y7.072 E3.37723
G1 X34.926 Y7.132 E3.38059
G1 X34.805 Y7.707 E3.41283
G1 X34.788 Y7.782 E3.41705
G1 X34.67 Y8.289 E3.44562
G1 X34.654 Y8.358 E3.44951
G1 X34.461 Y9.119 E3.49259
G1 X34.444 Y9.18 E3.49607
G1 X34.344 Y9.547 E3.51694
G1 X34.326 Y9.612 E3.52065
G1 X34.118 Y10.323 E3.5613
G1 X34.098 Y10.388 E3.56503
G1 X33.906 Y11.001 E3.60029
G1 X33.885 Y11.066 E3.60403
G1 X33.739 Y11.503 E3.62932
G1 X33.718 Y11.565 E3.63291
G1 X33.468 Y12.27 E3.67396
G1 X33.445 Y12.334 E3.67769
G1 X33.263 Y12.818 E3.70607
G1 X33.236 Y12.886 E3.71009
G1 X33.008 Y13.457 E3.74383
G1 X32.984 Y13.516 E3.74732
G1 X32.729 Y14.123 E3.78346
G1 X32.703 Y14.184 E3.78709
G1 X32.483 Y14.682 E3.81697
G1 X32.452 Y14.751 E3.82112
G1 X32.153 Y15.391 E3.85989
G1 X32.126 Y15.446 E3.86325
G1 X31.944 Y15.819 E3.88603
G1 X31.912 Y15.883 E3.88996
G1 X31.538 Y16.612 E3.93492
G1 X31.509 Y16.669 E3.93843
G1 X31.313 Y17.035 E3.96122
G1 X31.282 Y17.091 E3.96473
G1 X30.911 Y17.755 E4.00647
G1 X30.869 Y17.827 E4.01104
G1 X30.602 Y18.28 E4.0399
G1 X30.57 Y18.333 E4.0433
G1 X30.247 Y18.86 E4.07722
G1 X30.215 Y18.911 E4.08053
G1 X29.916 Y19.381 E4.1111
G1 X29.875 Y19.445 E4.11527
G1 X29.47 Y20.053 E4.15536
G1 X29.435 Y20.105 E4.1588
G1 X29.123 Y20.556 E4.18889
G1 X29.083 Y20.613 E4.19272
G1 X28.794 Y21.014 E4.21984
G1 X28.753 Y21.069 E4.22361
G1 X28.306 Y21.665 E4.26449
G1 X28.268 Y21.715 E4.26794
G1 X27.971 Y22.097 E4.29449
G1 X27.926 Y22.153 E4.29844
G1 X27.482 Y22.701 E4.33714
G1 X27.436 Y22.757 E4.34112
G1 X27.031 Y23.237 E4.37558
G1 X26.992 Y23.283 E4.37889
G1 X26.669 Y23.653 E4.40585
G1 X26.618 Y23.71 E4.41005
G1 X26.165 Y24.207 E4.44695
G1 X26.128 Y24.247 E4.44994
G1 X25.709 Y24.693 E4.48352
G1 X25.652 Y24.752 E4.48803
G1 X25.239 Y25.172 E4.52035
G1 X25.193 Y25.218 E4.52392
G1 X24.775 Y25.628 E4.55605
G1 X24.729 Y25.672 E4.55955
G1 X24.314 Y26.065 E4.59091
G1 X24.264 Y26.111 E4.59464
G1 X23.766 Y26.565 E4.63162
G1 X23.713 Y26.613 E4.63555
G1 X23.237 Y27.03 E4.67028
G1 X23.184 Y27.075 E4.67409
G1 X22.727 Y27.46 E4.70689
G1 X22.678 Y27.501 E4.71039
G1 X22.316 Y27.795 E4.73599
G1 X22.264 Y27.837 E4.73965
G1 X21.672 Y28.3 E4.7809
G1 X21.616 Y28.342 E4.78474
G1 X21.166 Y28.68 E4.81563
G1 X21.114 Y28.719 E4.81919
G1 X20.68 Y29.033 E4.84859
G1 X20.623 Y29.073 E4.85241
G1 X20.005 Y29.502 E4.8937
G1 X19.947 Y29.542 E4.89757
G1 X19.561 Y29.799 E4.92301
G1 X19.506 Y29.834 E4.92659
G1 X18.909 Y30.216 E4.96549
G1 X18.854 Y30.251 E4.96907
G1 X18.475 Y30.484 E4.99348
G1 X18.413 Y30.521 E4.99744
G1 X17.664 Y30.961 E5.04512
G1 X17.602 Y30.997 E5.04905
G1 X17.299 Y31.167 E5.06812
G1 X17.245 Y31.196 E5.07148
G1 X16.547 Y31.572 E5.11499
G1 X16.481 Y31.607 E5.11909
G1 X16.116 Y31.794 E5.1416
G1 X16.06 Y31.822 E5.14503
G1 X15.326 Y32.182 E5.1899
G1 X15.259 Y32.214 E5.19397
G1 X14.857 Y32.401 E5.2183
G1 X14.801 Y32.427 E5.22169
G1 X14.144 Y32.719 E5.26115
G1 X14.082 Y32.746 E5.26486
G1 X13.613 Y32.944 E5.2928
G1 X13.555 Y32.968 E5.29624
G1 X12.935 Y33.217 E5.33291
G1 X12.86 Y33.246 E5.33732
G1 X12.352 Y33.437 E5.36711
G1 X12.295 Y33.458 E5.37044
G1 X11.729 Y33.66 E5.40342
G1 X11.665 Y33.682 E5.40714
G1 X10.962 Y33.918 E5.44783
G1 X10.886 Y33.942 E5.45221
G1 X10.475 Y34.07 E5.47583
G1 X10.423 Y34.086 E5.47881
G1 X9.728 Y34.291 E5.51858
G1 X9.658 Y34.311 E5.52258
G1 X9.079 Y34.469 E5.55551
G1 X9.017 Y34.485 E5.55903
G1 X8.513 Y34.613 E5.58756
G1 X8.445 Y34.63 E5.59141
G1 X7.785 Y34.784 E5.6286
G1 X7.724 Y34.797 E5.63203
G1 X7.106 Y34.93 E5.66672
G1 X7.024 Y34.947 E5.67131
G1 X6.558 Y35.036 E5.69735
G1 X6.5 Y35.047 E5.70059
G1 X5.799 Y35.169 E5.73964
G1 X5.732 Y35.18 E5.74336
G1 X5.156 Y35.269 E5.77535
G1 X5.092 Y35.278 E5.7789
G1 X4.512 Y35.357 E5.81102
G1 X4.446 Y35.365 E5.81467
G1 X3.875 Y35.432 E5.84622
G1 X3.806 Y35.44 E5.85003
G1 X3.082 Y35.511 E5.88996
G1 X3.005 Y35.518 E5.8942
G1 X2.507 Y35.556 E5.92161
G1 X2.452 Y35.559 E5.92463
G1 X1.778 Y35.6 E5.96169
G1 X1.703 Y35.604 E5.96581
G1 X1.204 Y35.624 E5.99322
G1 X1.135 Y35.626 E5.997
G1 X0.372 Y35.642 E6.03889
G1 X0.318 Y35.643 E6.04185
G1 X-0.025 Y35.645 E6.06067
G1 X-0.095 Y35.645 E6.06452
G1 X-.979 Y35.633 E6.11303
G1 X-1.061 Y35.631 E6.11754
G1 X-1.556 Y35.613 E6.14472
G1 X-1.616 Y35.61 E6.14802
G1 X-2.199 Y35.579 E6.18005
G1 X-2.271 Y35.574 E6.18402
G1 X-2.845 Y35.532 E6.2156
G1 X-2.911 Y35.527 E6.21923
G1 X-3.662 Y35.458 E6.26062
G1 X-3.731 Y35.451 E6.26443
G1 X-4.163 Y35.403 E6.28828
G1 X-4.227 Y35.395 E6.29182
G1 X-4.837 Y35.316 E6.32558
G1 X-4.905 Y35.307 E6.32934
G1 X-5.584 Y35.206 E6.36701
G1 X-5.657 Y35.194 E6.37107
G1 X-6.24 Y35.095 E6.40353
G1 X-6.3 Y35.084 E6.40687
G1 X-6.839 Y34.983 E6.43697
G1 X-6.908 Y34.97 E6.44082
G1 X-7.606 Y34.825 E6.47995
G1 X-8.178 Y34.695 E6.51214
G1 X-8.245 Y34.68 E6.5159
G1 X-8.823 Y34.537 E6.54858
G1 X-8.889 Y34.52 E6.55232
G1 X-9.498 Y34.357 E6.58692
G1 X-9.562 Y34.339 E6.59057
G1 X-10.209 Y34.153 E6.62751
G1 X-10.269 Y34.135 E6.63095
G1 X-10.742 Y33.99 E6.6581
G1 X-10.813 Y33.967 E6.6622
G1 X-11.466 Y33.752 E6.69992
G1 X-11.533 Y33.73 E6.7038
G1 X-12.02 Y33.559 E6.73212
G1 X-12.079 Y33.537 E6.73558
G1 X-12.726 Y33.297 E6.77345
G1 X-12.795 Y33.271 E6.77749
G1 X-13.33 Y33.06 E6.80906
G1 X-13.388 Y33.036 E6.8125
G1 X-13.88 Y32.832 E6.84173
G1 X-13.949 Y32.803 E6.84584
G1 X-14.657 Y32.492 E6.88828
G1 X-14.709 Y32.469 E6.8914
G1 X-15.069 Y32.304 E6.91313
G1 X-15.132 Y32.274 E6.91696
G1 X-15.846 Y31.93 E6.96045
G1 X-15.911 Y31.898 E6.96443
G1 X-16.331 Y31.685 E6.99027
G1 X-16.391 Y31.654 E6.99398
G1 X-17.056 Y31.301 E7.0353
G1 X-17.116 Y31.268 E7.03905
G1 X-17.44 Y31.088 E7.05939
G1 X-17.5 Y31.054 E7.06318
G1 X-18.225 Y30.633 E7.10919
G1 X-18.275 Y30.603 E7.11239
G1 X-18.65 Y30.377 E7.13642
G1 X-18.717 Y30.336 E7.14073
G1 X-19.343 Y29.94 E7.18138
G1 X-19.389 Y29.911 E7.18436
G1 X-19.788 Y29.65 E7.21053
G1 X-19.855 Y29.604 E7.21499
G1 X-20.446 Y29.198 E7.25434
G1 X-20.5 Y29.161 E7.25793
G1 X-20.937 Y28.849 E7.2874
G1 X-20.99 Y28.81 E7.29101
G1 X-21.482 Y28.445 E7.32463
G1 X-21.542 Y28.4 E7.32874
G1 X-22.066 Y27.994 E7.36512
G1 X-22.115 Y27.955 E7.36856
G1 X-22.521 Y27.629 E7.39713
G1 X-22.57 Y27.589 E7.40061
G1 X-23.071 Y27.172 E7.43638
G1 X-23.126 Y27.125 E7.44035
G1 X-23.584 Y26.728 E7.47361
G1 X-23.638 Y26.68 E7.47758
G1 X-24.1 Y26.263 E7.51173
G1 X-24.143 Y26.224 E7.51492
G1 X-24.526 Y25.867 E7.54365
G1 X-24.577 Y25.818 E7.54753
G1 X-25.042 Y25.367 E7.58308
G1 X-25.093 Y25.317 E7.587
G1 X-25.524 Y24.882 E7.62061
G1 X-25.574 Y24.831 E7.62453
G1 X-26.033 Y24.349 E7.66105
G1 X-26.076 Y24.303 E7.66451
G1 X-26.419 Y23.93 E7.69232
G1 X-26.462 Y23.882 E7.69585
G1 X-26.854 Y23.44 E7.72828
G1 X-26.901 Y23.385 E7.73225
G1 X-27.338 Y22.872 E7.76923
G1 X-27.382 Y22.821 E7.77293
G1 X-27.783 Y22.332 E7.80763
G1 X-27.826 Y22.278 E7.81142
G1 X-28.132 Y21.89 E7.83854
G1 X-28.171 Y21.84 E7.84202
G1 X-28.612 Y21.26 E7.882
G1 X-28.656 Y21.201 E7.88604
G1 X-28.951 Y20.796 E7.91354
G1 X-28.988 Y20.743 E7.91709
G1 X-29.373 Y20.194 E7.95389
G1 X-29.416 Y20.132 E7.95803
G1 X-29.758 Y19.622 E7.99173
G1 X-29.789 Y19.575 E7.99482
G1 X-30.084 Y19.12 E8.02457
G1 X-30.123 Y19.059 E8.02855
G1 X-30.48 Y18.483 E8.06574
G1 X-30.518 Y18.419 E8.06982
G1 X-30.76 Y18.01 E8.0959
G1 X-30.792 Y17.955 E8.09939
G1 X-31.21 Y17.219 E8.14585
G1 X-31.241 Y17.164 E8.14931
G1 X-31.392 Y16.887 E8.16662
G1 X-31.424 Y16.826 E8.1704
G1 X-31.817 Y16.071 E8.21711
G1 X-31.851 Y16.005 E8.22119
G1 X-32.038 Y15.627 E8.24433
G1 X-32.066 Y15.569 E8.24787
G1 X-32.384 Y14.896 E8.28872
G1 X-32.415 Y14.829 E8.29277
G1 X-32.608 Y14.398 E8.31868
G1 X-32.632 Y14.342 E8.32203
G1 X-32.917 Y13.675 E8.36183
G1 X-32.943 Y13.612 E8.36557
G1 X-33.161 Y13.074 E8.39743
G1 X-33.184 Y13.018 E8.40075
G1 X-33.348 Y12.593 E8.42575
G1 X-33.376 Y12.517 E8.4302
G1 X-33.659 Y11.731 E8.47604
G1 X-33.68 Y11.672 E8.47948
G1 X-33.82 Y11.261 E8.50331
G1 X-33.841 Y11.195 E8.50711
G1 X-34.045 Y10.556 E8.54392
G1 X-34.065 Y10.493 E8.54755
G1 X-34.247 Y9.885 E8.58238
G1 X-34.265 Y9.823 E8.58592
G1 X-34.387 Y9.387 E8.61077
G1 X-34.405 Y9.318 E8.61468
G1 X-34.619 Y8.49 E8.66161
G1 X-34.638 Y8.416 E8.66581
G1 X-34.719 Y8.073 E8.68515
G1 X-34.732 Y8.015 E8.68841
G1 X-34.91 Y7.201 E8.73414
G1 X-34.924 Y7.135 E8.73784
G1 X-35.015 Y6.678 E8.76341
G1 X-35.029 Y6.603 E8.7676
G1 X-35.141 Y5.971 E8.80282
G1 X-35.15 Y5.915 E8.80594
G1 X-35.235 Y5.387 E8.83529
G1 X-35.246 Y5.319 E8.83907
G1 X-35.346 Y4.612 E8.87825
G1 X-35.355 Y4.538 E8.88234
G1 X-35.423 Y3.973 E8.91357
G1 X-35.43 Y3.908 E8.91716
G1 X-35.487 Y3.348 E8.94805
G1 X-35.493 Y3.288 E8.95136
G1 X-35.543 Y2.7 E8.98375
G1 X-35.549 Y2.62 E8.98815
G1 X-35.595 Y1.886 E9.02851
G1 X-35.598 Y1.824 E9.03192
G1 X-35.62 Y1.34 E9.05851
G1 X-35.623 Y1.271 E9.0623
G1 X-35.639 Y0.657 E9.096
G1 X-35.64 Y0.598 E9.09924
G1 X-35.646 Y-0.014 E9.13283
G1 X-35.646 Y-0.088 E9.13689
G1 X-35.639 Y-.737 E9.17251
G1 X-35.637 Y-.806 E9.1763
G1 X-35.619 Y-1.404 E9.20913
G1 X-35.617 Y-1.469 E9.2127
G1 X-35.591 Y-2.01 E9.24242
G1 X-35.586 Y-2.086 E9.2466
G1 X-35.534 Y-2.837 E9.28792
G1 X-35.529 Y-2.904 E9.2916
G1 X-35.498 Y-3.256 E9.31099
G1 X-35.492 Y-3.317 E9.31436
G1 X-35.402 Y-4.172 E9.36154
G1 X-35.394 Y-4.244 E9.36551
G1 X-35.339 Y-4.682 E9.38974
G1 X-35.329 Y-4.752 E9.39362
G1 X-35.235 Y-5.397 E9.42939
G1 X-35.227 Y-5.454 E9.43255
G1 X-35.134 Y-6.028 E9.46446
G1 X-35.12 Y-6.104 E9.4687
G1 X-34.984 Y-6.842 E9.50989
G1 X-34.971 Y-6.912 E9.51379
G1 X-34.891 Y-7.303 E9.5357
G1 X-34.879 Y-7.356 E9.53868
G1 X-34.729 Y-8.036 E9.57689
G1 X-34.711 Y-8.116 E9.58139
G1 X-34.541 Y-8.811 E9.62066
G1 X-34.524 Y-8.878 E9.62445
G1 X-34.426 Y-9.248 E9.64546
G1 X-34.412 Y-9.3 E9.64841
G1 X-34.211 Y-10.015 E9.68917
G1 X-34.19 Y-10.087 E9.69329
G1 X-34.023 Y-10.637 E9.72483
G1 X-34.004 Y-10.696 E9.72823
G1 X-33.804 Y-11.316 E9.76399
G1 X-33.78 Y-11.388 E9.76815
G1 X-33.616 Y-11.862 E9.79568
G1 X-33.594 Y-11.924 E9.79929
G1 X-33.341 Y-12.614 E9.83962
G1 X-33.315 Y-12.682 E9.84361
G1 X-33.165 Y-13.067 E9.86629
G1 X-33.144 Y-13.121 E9.86947
G1 X-32.852 Y-13.836 E9.91185
G1 X-32.822 Y-13.906 E9.91603
G1 X-32.595 Y-14.43 E9.94737
G1 X-32.569 Y-14.49 E9.95096
G1 X-32.332 Y-15.011 E9.98237
G1 X-32.305 Y-15.068 E9.98583
G1 X-32.024 Y-15.658 E10.0217
G1 X-31.991 Y-15.725 E10.0258
G1 X-31.74 Y-16.225 E10.0565
G1 X-31.709 Y-16.286 E10.06025
G1 X-31.418 Y-16.839 E10.09455
